X:1
T:J. H. Stockton
T:F. T. W.
T:Look, and thou shalt live!
%%score { ( 1 2 ) | ( 3 4 ) }
L:1/8
M:4/4
K:Ab
V:1 treble 
V:2 treble 
V:3 bass 
V:4 bass 
V:1
 c2 c>B A2 A>G | F2 A2 E4 | c2 c>d e2 (e>c) | A2 c2 B4 | c2 c>B A2 (A>G) | F2 A2 E4 | c3 A c2 B2 | %7
 A6 z2 | A3 B A2 F2 | (E3 F A2) z2 | c3 d c2 A2 | (B3 c) B2 z2 | c2 c>B A2 (A>G) | F2 A2 E4 | %14
 c3 A c2 B2 | A6 z2 |] %16
V:2
 E2 E>D C2 E>E | D2 D2 C4 | E2 E>F E2 (E>E) | E2 E2 E4 | E2 E>D C2 E>D | D2 D2 C4 | E3 C E2 D2 | %7
 C6 z2 | F3 F F2 D2 | (C3 D C2) z2 | E3 F E2 E2 | E6 z2 | E2 E>D C2 E>D | D2 D2 C4 | E3 C E2 D2 | %15
 C6 z2 |] %16
V:3
 A,2 A,>A, A,2 A,>A, | A,2 A,2 A,4 | A,2 A,>B, C2 (C>E) | C2 A,2 G,4 | A,2 A,>A, A,2 (A,>A,) | %5
 A,2 A,2 A,4 | A,3 A, A,2 G,2 | A,6 z2 | A,3 A, A,2 A,2 | A,6 z2 | A,3 A, A,2 A,2 | %11
 (G,3 A,) G,2 z2 | A,2 A,>A, A,2 (A,>A,) | A,2 A,2 A,4 | A,3 A, A,2 G,2 | A,6 z2 |] %16
V:4
 A,,2 A,,>A,, A,,2 C,>C, | D,2 F,2 A,4 | A,2 A,>A, A,2 A,>A, | A,2 A,2 E,4 | %4
 A,,2 A,,>A,, A,,2 (C,>C,) | D,2 F,2 A,4 | E,3 E, E,2 E,2 | A,,6 z2 | D,3 D, D,2 D,2 | A,,6 z2 | %10
 A,3 A, A,2 C,2 | E,6 z2 | A,,2 A,,>A,, A,,2 (C,>C,) | D,2 F,2 A,4 | E,3 E, E,2 E,2 | A,,6 z2 |] %16

